X: 18
T: Missa Se la face ay pale / Credo
N: Derived from Duf1005c-Missa_Se_la_face_ay_pale-Credo.krn
C: Guillaume Du Fay
%%abc-version 2.0
%%abcx-abcm2ps-target-version 5.9.1 (29 Sep 2008)
%%abc-creator hum2abc beta
%%abcx-conversion-date 2019/02/16 20:31:46
%%abc-edited-by Jesse Rodin
%%abc-edited-by Planchart/Rodin
%%abcx-initial-encoding-date 2013/11/21/
%%humdrum-veritas 3601667978
%%humdrum-veritas-data 1500242775
%%linebreak <none>
%%barnumbers 0
L: 1/4
M: 3/1
Q: 1/2=120
%%staves [1 2 3 4]
V: 1 clef=treble
V: 2 clef=treble-8
V: 3 clef=treble-8
V: 4 clef=bass
K: C
[V:1] c6B2A4 | 
[V:2] c12 | 
[V:3] z12 | 
[V:4] z12 | 
[V:1] G4c6B2 | 
[V:2] c6B2A4 | 
[V:3] z12 | 
[V:4] z12 | 
[V:1] B4A2G2E4 | 
[V:2] G4c8 | 
[V:3] z12 | 
[V:4] z12 | 
[V:1] D8z4 | 
[V:2] B12 | 
[V:3] z12 | 
[V:4] z12 | 
[V:1] C4E2F2G4 | 
[V:2] z4c8 | 
[V:3] z12 | 
[V:4] z12 | 
[V:1] c4B4e4 | 
[V:2] c4e2f2g4 | 
[V:3] z12 | 
[V:4] z12 | 
[V:1] e4d6c2 | 
[V:2] c4B4e4- | 
[V:3] z12 | 
[V:4] z12 | 
[V:1] c6B2B2A2 | 
[V:2] e4d8 | 
[V:3] z12 | 
[V:4] z12 | 
[V:1] c4z4c4 | 
[V:2] c12 | 
[V:3] z12 | 
[V:4] z12 | 
[V:1] B4A6G2 | 
[V:2] z4z4c4 | 
[V:3] z12 | 
[V:4] z12 | 
[V:1] G4c6B2 | 
[V:2] B4A8 | 
[V:3] z12 | 
[V:4] z12 | 
[V:1] B4A6G2 | 
[V:2] G4c8 | 
[V:3] z12 | 
[V:4] z12 | 
[V:1] G6^F2F2E2 | 
[V:2] B4A8 | 
[V:3] z12 | 
[V:4] z12 | 
[V:1] G12 | 
[V:2] G8c4 | 
[V:3] z12 | 
[V:4] z12 | 
[V:1] z4z4c4 | 
[V:2] d4e8 | 
[V:3] z12 | 
[V:4] z12 | 
[V:1] d4e3dB2cB | 
[V:2] f4g6e2 | 
[V:3] z12 | 
[V:4] z12 | 
[V:1] AGG4E2F3G | 
[V:2] f2g2e2c2d4 | 
[V:3] z12 | 
[V:4] z12 | 
[V:1] E2D3CC4B,2 | 
[V:2] c2f4e2d4 | 
[V:3] z12 | 
[V:4] z12 | 
[V:1] C4z4G2G2 | 
[V:2] c12 | 
[V:3] c12- | 
[V:4] C,12 | 
[V:1] A2A2A2B2c4 | 
[V:2] z4z4f4 | 
[V:3] c12 | 
[V:4] F,12 | 
[V:1] c4A4A4 | 
[V:2] f8f4 | 
[V:3] c12 | 
[V:4] F,12 | 
[V:1] G4G2F2D4 | 
[V:2] d8g4- | 
[V:3] B12- | 
[V:4] G,12 | 
[V:1] E2F2G4G4 | 
[V:2] g4e8 | 
[V:3] B12 | 
[V:4] E,12 | 
[V:1] A4B2c4A2- | 
[V:2] c8f4 | 
[V:3] A12 | 
[V:4] F,12 | 
[V:1] A2c2B2A4G2 | 
[V:2] e4f2f3ed2 | 
[V:3] c6d6 | 
[V:4] A,4F,4_B,4 | 
[V:1] A4B6A2 | 
[V:2] c4B4B4 | 
[V:3] e12 | 
[V:4] A,4G,8 | 
[V:1] A12 | 
[V:2] c2d4c2A2B2 | 
[V:3] f12 | 
[V:4] F,6E,2D,4 | 
[V:1] z12 | 
[V:2] c4c4G4 | 
[V:3] e12 | 
[V:4] C,12 | 
[V:1] G4G4G4 | 
[V:2] z4_B4_B4 | 
[V:3] d12- | 
[V:4] G,12 | 
[V:1] F4F2G2A4- | 
[V:2] A8A4 | 
[V:3] d12 | 
[V:4] D,12 | 
[V:1] A2B2c4A4 | 
[V:2] A8f2f2 | 
[V:3] c12 | 
[V:4] F,12 | 
[V:1] B2B2c4A3F | 
[V:2] g4e4c4 | 
[V:3] G6A6- | 
[V:4] E,4C,4F,4- | 
[V:1] F2E2C2F2EE2D | 
[V:2] z12 | 
[V:3] A6B6 | 
[V:4] F,2C,2F,4G,4 | 
[V:1] F4z4z4 | 
[V:2] A8A4- & a8a4- | 
[V:3] c12- | 
[V:4] F,12- | 
[V:1] F6A4B2 | 
[V:2] A4f8 & a4x8 | 
[V:3] c12 | 
[V:4] F,12 | 
[V:1] c4c4d4 | 
[V:2] e4a4g2f2 | 
[V:3] z12 | 
[V:4] A,8B,4 | 
[V:1] e8c4 | 
[V:2] e8e4 | 
[V:3] g12- | 
[V:4] C12 | 
[V:1] d4B6A2 | 
[V:2] d4d4d4 | 
[V:3] g12 | 
[V:4] G,12 | 
[V:1] c8c4 | 
[V:2] e8e2f2 | 
[V:3] g12 | 
[V:4] C,12 | 
[V:1] c6B2A2G2 | 
[V:2] g4a2g2e4 | 
[V:3] c12- | 
[V:4] z12 | 
[V:1] G8A4 | 
[V:2] z4e4e4 | 
[V:3] c12 | 
[V:4] C,8C,4 | 
[V:1] B8G4 | 
[V:2] d2g4f2d4 | 
[V:3] B12 | 
[V:4] G,4E,2F,2G,4 | 
[V:1] G4A6G2 | 
[V:2] e4A8 | 
[V:3] c6d6 | 
[V:4] C,4F,8 | 
[V:1] G4z4z4 | 
[V:2] B4c4A4 | 
[V:3] e6f6 | 
[V:4] E,4C,4D,4- | 
[V:1] z12 | 
[V:2] A4B6G2 | 
[V:3] d12 | 
[V:4] D,4B,,8 | 
[V:1] E6F2G4 | 
[V:2] G12 | 
[V:3] c12- | 
[V:4] C,8C,4 | 
[V:1] A2B2c4c4 | 
[V:2] z4z4e4 | 
[V:3] c12 | 
[V:4] F,6G,2A,4 | 
[V:1] B2A4A4G2 | 
[V:2] f4e2c2d4 | 
[V:3] z12 | 
[V:4] D4C2A,2_B,4 | 
[V:1] A3GE4E4 | 
[V:2] e4c8 | 
[V:3] a12 | 
[V:4] A,12 | 
[V:1] F6E2C4 | 
[V:2] c4d2c2A4 | 
[V:3] a6a6- | 
[V:4] F,12 | 
[V:1] c4c4d4 | 
[V:2] F12 | 
[V:3] a6a6 | 
[V:4] z12 | 
[V:1] e2e4e3dc2 | 
[V:2] c8c4 | 
[V:3] g12- | 
[V:4] z12 | 
[V:1] B4z4c4 | 
[V:2] G8c4 | 
[V:3] g12 | 
[V:4] z12 | 
[V:1] A2A2G4c4 | 
[V:2] c4c4A4 | 
[V:3] z6c6 | 
[V:4] z12 | 
[V:1] B4G2A2G2c2 | 
[V:2] G4B2A2c4 | 
[V:3] d6e6 | 
[V:4] z12 | 
[V:1] B2A4d4d2- | 
[V:2] d8d4 | 
[V:3] f12 | 
[V:4] z12 | 
[V:1] d2B4G2A3G | 
[V:2] G8F4 | 
[V:3] d12 | 
[V:4] z12 | 
[V:1] E4c4c4 | 
[V:2] G4z2g2a4 | 
[V:3] c12 | 
[V:4] C,8F,4 | 
[V:1] B4c4A4 | 
[V:2] g4e2^f4e2 | 
[V:3] z12 | 
[V:4] G,4A,8 | 
[V:1] B8z4 | 
[V:2] g8g4 | 
[V:3] d12 | 
[V:4] G,12 | 
[V:1] G4G4G4 | 
[V:2] e12 | 
[V:3] c12 | 
[V:4] C,12- | 
[V:1] E4E4E4 | 
[V:2] c8c2d2 | 
[V:3] G12 | 
[V:4] C,12 | 
[V:1] C4C4c4 | 
[V:2] e8c4 | 
[V:3] g6g6 | 
[V:4] z12 | 
[V:1] B2d3cc2B3A | 
[V:2] d8d4 | 
[V:3] g6g6 | 
[V:4] G,12 | 
[V:1] c4A4G4 | 
[V:2] z4e4e4 | 
[V:3] c12 | 
[V:4] A,8E,4 | 
[V:1] F2G2A4A2B2 | 
[V:2] A4f8 | 
[V:3] z6d6 | 
[V:4] D,12 | 
[V:1] c6B2A4 | 
[V:2] e4e4f4 | 
[V:3] c12 | 
[V:4] A,8F,4 | 
[V:1] G4G4F3D | 
[V:2] d8d4- | 
[V:3] _B12 | 
[V:4] G,8D,4- | 
[V:1] F3GA2A3GF2 | 
[V:2] d4c8 | 
[V:3] A12 | 
[V:4] D,4F,8 | 
[V:1] E12 | 
[V:2] c8z4 | 
[V:3] G12 | 
[V:4] C,12 | 
[V:1] z12 | 
[V:2] e6f2g4 | 
[V:3] z12 | 
[V:4] C12 | 
[V:1] z12 | 
[V:2] a4g2g3fe2 | 
[V:3] z12 | 
[V:4] C6B,2G,2A,2 | 
[V:1] z12 | 
[V:2] d4a6g2 | 
[V:3] z12 | 
[V:4] B,4C8 | 
[V:1] z12 | 
[V:2] g6^f2^f2e2 | 
[V:3] z12 | 
[V:4] B,4A,8 | 
[V:1] z12 | 
[V:2] g4z4d4 | 
[V:3] z12 | 
[V:4] G,8G,4 | 
[V:1] z12 | 
[V:2] e2d4c2B3G | 
[V:3] z12 | 
[V:4] G,4F,2E,2G,4 | 
[V:1] z12 | 
[V:2] A2B2G4A2G2 | 
[V:3] z12 | 
[V:4] F,2G,4E,2F,2E,2 | 
[V:1] z12 | 
[V:2] c3BG2z2e2f2 | 
[V:3] z12 | 
[V:4] C,6B,,2C,2D,2 | 
[V:1] z12 | 
[V:2] g3fe2d3efg | 
[V:3] z12 | 
[V:4] E,2C,4B,,2D,4 | 
[V:1] z12 | 
[V:2] e2d3cc3AB2 | 
[V:3] z12 | 
[V:4] C,2F,4E,2D,4 | 
[V:1] z12 | 
[V:2] c4c4B3G | 
[V:3] z12 | 
[V:4] C,4E,2F,2G,4 | 
[V:1] z12 | 
[V:2] G4z4g4 | 
[V:3] c12- | 
[V:4] C,12 | 
[V:1] z12 | 
[V:2] f2g2a6g2 | 
[V:3] c12 | 
[V:4] F,12 | 
[V:1] z12 | 
[V:2] e2d2g2f2e3d | 
[V:3] B12 | 
[V:4] G,12 | 
[V:1] A6B2c4- | 
[V:2] f12 | 
[V:3] c12- | 
[V:4] F,12 | 
[V:1] c2A4G2F3E | 
[V:2] z12 | 
[V:3] c12 | 
[V:4] A,12 | 
[V:1] G2A2B6A2 | 
[V:2] z12 | 
[V:3] d12 | 
[V:4] G,12 | 
[V:1] c2B2G8 | 
[V:2] z4c8 | 
[V:3] e12 | 
[V:4] C,12- | 
[V:1] E4E4E2F2 | 
[V:2] g8g4 | 
[V:3] c12 | 
[V:4] C,12- | 
[V:1] G4A2G2c4 | 
[V:2] c12 | 
[V:3] z12 | 
[V:4] C,12 | 
[V:1] B3cd2e2d2B2 | 
[V:2] G3AB2c2G4 | 
[V:3] g6g6 | 
[V:4] z12 | 
[V:1] z2e4d2c4 | 
[V:2] c3Bc2d2A4 | 
[V:3] e6f6 | 
[V:4] z12 | 
[V:1] B2c2d4B4 | 
[V:2] G8G4 | 
[V:3] g12 | 
[V:4] z12 | 
[V:1] G2c2B2G2A3G | 
[V:2] c4e4f4 | 
[V:3] z12 | 
[V:4] z12 | 
[V:1] E4z4c4 | 
[V:2] g8e4 | 
[V:3] c12 | 
[V:4] z12 | 
[V:1] B2A6G4 | 
[V:2] d2f3ec6- | 
[V:3] d6e6 | 
[V:4] z12 | 
[V:1] c2A2B2c4c2- | 
[V:2] c2d4c4g2- | 
[V:3] f6e6 | 
[V:4] z12 | 
[V:1] cBAGG4G4 | 
[V:2] g2e6d4- | 
[V:3] c6G6 | 
[V:4] z12 | 
[V:1] F2E3FG3FD2 | 
[V:2] d2c4G2G4 | 
[V:3] A6B6 | 
[V:4] z12 | 
[V:1] E3CC4z4 | 
[V:2] G12 | 
[V:3] c6e6- | 
[V:4] C,12 | 
[V:1] G8A4 | 
[V:2] z12 | 
[V:3] e6c6 | 
[V:4] C8A,4 | 
[V:1] B4G4c4 | 
[V:2] d4e3fg4 | 
[V:3] g6e6 | 
[V:4] G,4C8 | 
[V:1] c8c4 | 
[V:2] a8a4 | 
[V:3] c6z6 | 
[V:4] A,4F,2G,2A,4 | 
[V:1] B4c3de4- | 
[V:2] d4e4c4 | 
[V:3] g6e6 | 
[V:4] G,4C,8 | 
[V:1] e2d2c2B2A4 | 
[V:2] c2B2c2d4d2 | 
[V:3] g6f6 | 
[V:4] z12 | 
[V:1] G8G4 | 
[V:2] B8G4 | 
[V:3] d12 | 
[V:4] G,6A,2B,4 | 
[V:1] E8c4 | 
[V:2] g4a8 | 
[V:3] c12 | 
[V:4] C4A,4F,4 | 
[V:1] c4B6A2 | 
[V:2] f4g8 | 
[V:3] z6d6 | 
[V:4] A,4G,8 | 
[V:1] c12 | 
[V:2] e4f3ec2f2 | 
[V:3] c6A6- | 
[V:4] A,4F,8 | 
[V:1] z2c4d2B4 | 
[V:2] e2a3gf2e3d | 
[V:3] A6B6 | 
[V:4] C4F,4G,4 | 
[V:1] A8F4 | 
[V:2] f8c4 | 
[V:3] c6A6 | 
[V:4] F,8F,4 | 
[V:1] E12 | 
[V:2] z4z4G4 | 
[V:3] G6c6- | 
[V:4] C,12- | 
[V:1] z4z4G4 | 
[V:2] G4c8 | 
[V:3] c6e6 | 
[V:4] C,12 | 
[V:1] F4D2F4G2 | 
[V:2] A4A4_B4 | 
[V:3] d12 | 
[V:4] D,12 | 
[V:1] A2B2c8 | 
[V:2] A8F4 | 
[V:3] c12- | 
[V:4] F,8A,4 | 
[V:1] c6A4F2 | 
[V:2] F4A8 | 
[V:3] c12- | 
[V:4] A,4F,8 | 
[V:1] F6E2E2D2 | 
[V:2] A4G8 | 
[V:3] c12- | 
[V:4] F,4C,8 | 
[V:1] F12 ||  
[V:2] F4A2B2c4 ||  
[V:3] c12 ||  
[V:4] z4F,8 ||  
[V:1]  [K:C] [K:clef=treble][M:4/2]F8 | 
[V:2]  [K:C] [K:clef=treble-8][M:4/2]F8 | 
[V:3]  [K:C] [K:clef=treble-8][M:4/2]z8 | 
[V:4]  [K:C] [K:clef=bass][M:4/2]z8 | 
[V:1] A6B2 | 
[V:2] F4F4 | 
[V:3] z8 | 
[V:4] z8 | 
[V:1] c4c4 | 
[V:2] F8 | 
[V:3] z8 | 
[V:4] z8 | 
[V:1] c4d2c2 | 
[V:2] A4B4 | 
[V:3] z8 | 
[V:4] z8 | 
[V:1] A4G4- | 
[V:2] c6B2 | 
[V:3] z8 | 
[V:4] z8 | 
[V:1] G4c4 | 
[V:2] c4e4 | 
[V:3] z8 | 
[V:4] z8 | 
[V:1] B4A4- | 
[V:2] d6c2 | 
[V:3] z8 | 
[V:4] z8 | 
[V:1] A2G2G4 | 
[V:2] f4e4 | 
[V:3] z8 | 
[V:4] z8 | 
[V:1] A2G2E4 | 
[V:2] d4g4- | 
[V:3] z8 | 
[V:4] z8 | 
[V:1] D6C2 | 
[V:2] g2f4e2 | 
[V:3] z8 | 
[V:4] z8 | 
[V:1] C4c4- | 
[V:2] g4e2c2 | 
[V:3] z8 | 
[V:4] z8 | 
[V:1] c2B2B2A2 | 
[V:2] d8 | 
[V:3] z8 | 
[V:4] z8 | 
[V:1] c4z4 | 
[V:2] c8 | 
[V:3] z8 | 
[V:4] z8 | 
[V:1] A2G2G3F | 
[V:2] c4B2c2- | 
[V:3] z8 | 
[V:4] z8 | 
[V:1] E2D4D2- | 
[V:2] c2d2B4 | 
[V:3] z8 | 
[V:4] z8 | 
[V:1] D2G3FG2 | 
[V:2] G4B4 | 
[V:3] z8 | 
[V:4] z8 | 
[V:1] A2E2^F3E | 
[V:2] A8 | 
[V:3] z8 | 
[V:4] z8 | 
[V:1] G8 | 
[V:2] G4z4 | 
[V:3] z8 | 
[V:4] z8 | 
[V:1] z8 | 
[V:2] e6f2 | 
[V:3] c8- | 
[V:4] C,8- | 
[V:1] c4c4 | 
[V:2] g6a2- | 
[V:3] c8 | 
[V:4] C,8 | 
[V:1] A2B2c4 | 
[V:2] a2g2e2f2 | 
[V:3] c8 | 
[V:4] F,2G,2A,4 | 
[V:1] d8 | 
[V:2] g4d4- | 
[V:3] B8- | 
[V:4] G,8- | 
[V:1] G4G4 | 
[V:2] d4d4- | 
[V:3] B8 | 
[V:4] G,8 | 
[V:1] F2G2A4- | 
[V:2] d4c4 | 
[V:3] A8 | 
[V:4] D,4F,4- | 
[V:1] A2G2F2E2 | 
[V:2] A4B4 | 
[V:3] c4d4 | 
[V:4] F,2E,2D,4 | 
[V:1] G8 | 
[V:2] c4G2c2 | 
[V:3] e8 | 
[V:4] C,8 | 
[V:1] z8 | 
[V:2] A2B4A2 | 
[V:3] f8 | 
[V:4] D,8 | 
[V:1] G8 | 
[V:2] c8 | 
[V:3] e8 | 
[V:4] C,8 | 
[V:1] B2c2d4- | 
[V:2] z8 | 
[V:3] d8- | 
[V:4] G,8 | 
[V:1] d2A2B4 | 
[V:2] f8 | 
[V:3] d8 | 
[V:4] z8 | 
[V:1] c2d2e4 | 
[V:2] e6f2 | 
[V:3] c8 | 
[V:4] A,8 | 
[V:1] d4c4- | 
[V:2] g4e4 | 
[V:3] G4A4- | 
[V:4] B,4C4 | 
[V:1] c4B4 | 
[V:2] c2f2d2e2 | 
[V:3] A4B4 | 
[V:4] A,2F,2G,4 | 
[V:1] A8 | 
[V:2] f8 | 
[V:3] c8- | 
[V:4] F,8 | 
[V:1] G8 | 
[V:2] e8 | 
[V:3] c8 | 
[V:4] C,8- | 
[V:1] E8 | 
[V:2] c8 | 
[V:3] z8 | 
[V:4] C,8 | 
[V:1] E6C2 | 
[V:2] c4c4 | 
[V:3] g8- | 
[V:4] z8 | 
[V:1] D4E4 | 
[V:2] G4c2d2 | 
[V:3] g8 | 
[V:4] z8 | 
[V:1] C8 | 
[V:2] e6f2 | 
[V:3] g8 | 
[V:4] z8 | 
[V:1] z2c4A2 | 
[V:2] g4g2a2- | 
[V:3] c8- | 
[V:4] z8 | 
[V:1] c2B2G4 | 
[V:2] a2g2e4 | 
[V:3] c8 | 
[V:4] z8 | 
[V:1] z4d4 | 
[V:2] d4G4 | 
[V:3] B8 | 
[V:4] z8 | 
[V:1] e4d2B2- | 
[V:2] z2g2f3e | 
[V:3] c4d4 | 
[V:4] z8 | 
[V:1] B2c4d2- | 
[V:2] g4a4 | 
[V:3] e4f4 | 
[V:4] z8 | 
[V:1] d2c2A2B2 | 
[V:2] f2f4e2 | 
[V:3] d8 | 
[V:4] z8 | 
[V:1] c8- | 
[V:2] g8 | 
[V:3] c8- | 
[V:4] C,8 | 
[V:1] c8- | 
[V:2] z8 | 
[V:3] c8 | 
[V:4] F,8 | 
[V:1] c8 | 
[V:2] e8 | 
[V:3] z8 | 
[V:4] A,2B,2C4 | 
[V:1] z8 | 
[V:2] f6e2 | 
[V:3] a8 | 
[V:4] F,8 | 
[V:1] F6E2 | 
[V:2] d2c2c4 | 
[V:3] a4a4- | 
[V:4] z4F,4 | 
[V:1] D2C2D4 | 
[V:2] B2A4G2 | 
[V:3] a4a4 | 
[V:4] F,8 | 
[V:1] E8 | 
[V:2] B4B4 | 
[V:3] g8- | 
[V:4] E,8 | 
[V:1] E8 | 
[V:2] c2B2G4 | 
[V:3] g8 | 
[V:4] C,8 | 
[V:1] C4c4 | 
[V:2] A4A4 | 
[V:3] z4c4 | 
[V:4] F,8 | 
[V:1] B6G2 | 
[V:2] G2A2B4 | 
[V:3] d4e4 | 
[V:4] z4G,4 | 
[V:1] A2B2c2A2- | 
[V:2] c8 | 
[V:3] f8 | 
[V:4] F,8 | 
[V:1] A2G2G2F2 | 
[V:2] z4d4 | 
[V:3] d8 | 
[V:4] _B,8 | 
[V:1] A4A4- | 
[V:2] e4e4 | 
[V:3] c8 | 
[V:4] A,8 | 
[V:1] A2B2c4 | 
[V:2] f4f4 | 
[V:3] z8 | 
[V:4] F,4A,4 | 
[V:1] B6G2 | 
[V:2] g4g4 | 
[V:3] d8 | 
[V:4] G,8 | 
[V:1] G8 | 
[V:2] e8 | 
[V:3] c8 | 
[V:4] C,8- | 
[V:1] E4C4 | 
[V:2] z4e4 | 
[V:3] G8 | 
[V:4] C,8 | 
[V:1] E6F2 | 
[V:2] c8 | 
[V:3] g4g4 | 
[V:4] z8 | 
[V:1] G4c4 | 
[V:2] e8 | 
[V:3] g4g4 | 
[V:4] C6B,2 | 
[V:1] c6BA | 
[V:2] e6d2 | 
[V:3] c8 | 
[V:4] A,6G,F, | 
[V:1] G4F2G2 | 
[V:2] e4A4- | 
[V:3] z4d4 | 
[V:4] E,4D,4 | 
[V:1] A2G2E4 | 
[V:2] A4G4 | 
[V:3] c8 | 
[V:4] F,2E,2C,4 | 
[V:1] D2G4G2 | 
[V:2] z4d4- | 
[V:3] _B8 | 
[V:4] G,8 | 
[V:1] A2^F4E2 | 
[V:2] d4d4 | 
[V:3] A8 | 
[V:4] D,8 | 
[V:1] G8 | 
[V:2] d6e2 | 
[V:3] G8 | 
[V:4] z4G,4- | 
[V:1] z8 | 
[V:2] d2B4d2- | 
[V:3] z8 | 
[V:4] G,4G,4 | 
[V:1] z8 | 
[V:2] dcA2B2G2- | 
[V:3] z8 | 
[V:4] F,4G,4 | 
[V:1] z8 | 
[V:2] G2c4B2 | 
[V:3] z8 | 
[V:4] C,2E,2D,4 | 
[V:1] z8 | 
[V:2] c8 | 
[V:3] z8 | 
[V:4] C,8 | 
[V:1] z8 | 
[V:2] A2F2F4- | 
[V:3] z8 | 
[V:4] C4C2A,2- | 
[V:1] z8 | 
[V:2] F4z4 | 
[V:3] z8 | 
[V:4] A,2F,2G,4 | 
[V:1] z8 | 
[V:2] c4c2A2- | 
[V:3] z8 | 
[V:4] F,8 | 
[V:1] z8 | 
[V:2] A2F2G4 | 
[V:3] z8 | 
[V:4] z4E,4 | 
[V:1] z8 | 
[V:2] F8 | 
[V:3] z8 | 
[V:4] F,4A,3B, | 
[V:1] z8 | 
[V:2] A3Bc2d2 | 
[V:3] z8 | 
[V:4] C4C,2F,2- | 
[V:1] z8 | 
[V:2] c2f4e2 | 
[V:3] z8 | 
[V:4] F,2A,2G,4 | 
[V:1] A8 | 
[V:2] f8 | 
[V:3] c8- | 
[V:4] F,8 | 
[V:1] G6A2 | 
[V:2] e8 | 
[V:3] c8 | 
[V:4] C,4E,2F,2 | 
[V:1] B2c2d4 | 
[V:2] d4g4- | 
[V:3] B8 | 
[V:4] G,8 | 
[V:1] e4c2B2 | 
[V:2] g4e4 | 
[V:3] c8- | 
[V:4] C,8 | 
[V:1] A4G4 | 
[V:2] c4G4 | 
[V:3] c8 | 
[V:4] F,4E,4 | 
[V:1] F2F4E2 | 
[V:2] A4B4 | 
[V:3] d8 | 
[V:4] D,8 | 
[V:1] G8 | 
[V:2] c6B2 | 
[V:3] e8 | 
[V:4] C,8- | 
[V:1] E8 | 
[V:2] A2G2G4- | 
[V:3] c8 | 
[V:4] C,8- | 
[V:1] C2D2E4- | 
[V:2] G4c4 | 
[V:3] z8 | 
[V:4] C,8 | 
[V:1] E2C2D2E2 | 
[V:2] c4B2c2- | 
[V:3] g4g4 | 
[V:4] z8 | 
[V:1] C2B,2C4 | 
[V:2] c2G2A4 | 
[V:3] e4f4 | 
[V:4] z8 | 
[V:1] D4B,4 | 
[V:2] G8 | 
[V:3] g8 | 
[V:4] z8 | 
[V:1] C8 | 
[V:2] G8 | 
[V:3] z8 | 
[V:4] C,8 | 
[V:1] z4c4 | 
[V:2] A4F4 | 
[V:3] c8 | 
[V:4] F,4A,4 | 
[V:1] B8 | 
[V:2] z8 | 
[V:3] d4e4 | 
[V:4] G,8 | 
[V:1] A4G2F2 | 
[V:2] z8 | 
[V:3] f4e4 | 
[V:4] F,4G,2A,2- | 
[V:1] E4D4 | 
[V:2] z8 | 
[V:3] c4G4 | 
[V:4] A,2C2B,4 | 
[V:1] C2F4E2 | 
[V:2] z8 | 
[V:3] A4B4 | 
[V:4] C2A,2G,4 | 
[V:1] F2A2G4 | 
[V:2] z8 | 
[V:3] c4e4- | 
[V:4] F,4C4- | 
[V:1] c4c4 | 
[V:2] z4A4 | 
[V:3] e4c4 | 
[V:4] C2B,2A,4 | 
[V:1] B4G4- | 
[V:2] B4c4 | 
[V:3] g4e4 | 
[V:4] G,4C,4- | 
[V:1] G4E4 | 
[V:2] G4g4 | 
[V:3] c4z4 | 
[V:4] C,8 | 
[V:1] C4G4- | 
[V:2] e4c4 | 
[V:3] g4e4 | 
[V:4] C,8 | 
[V:1] G4A4 | 
[V:2] G4z4 | 
[V:3] g4f4 | 
[V:4] E,4F,4 | 
[V:1] B6A2 | 
[V:2] g8 | 
[V:3] d8 | 
[V:4] G,8 | 
[V:1] c2d2e4 | 
[V:2] e2f2g4- | 
[V:3] c8 | 
[V:4] C,8 | 
[V:1] d2B4A2 | 
[V:2] g4g4 | 
[V:3] z4d4 | 
[V:4] G,8 | 
[V:1] c8 | 
[V:2] e4c4- | 
[V:3] c4A4- | 
[V:4] A,6F,2- | 
[V:1] A2G2F4 | 
[V:2] c4d4 | 
[V:3] A4B4 | 
[V:4] F,2E,2D,4 | 
[V:1] E4z2F2 | 
[V:2] G4A2c2- | 
[V:3] c4A4 | 
[V:4] C,4F,4 | 
[V:1] E2G4A2 | 
[V:2] c2B2G4 | 
[V:3] G4c4- | 
[V:4] C,8 | 
[V:1] c2B2G4 | 
[V:2] A2B2c4 | 
[V:3] c4e4 | 
[V:4] z8 | 
[V:1] F2G2A4- | 
[V:2] A8 | 
[V:3] d8 | 
[V:4] D,8 | 
[V:1] A2_B2A2GF | 
[V:2] A8 | 
[V:3] c8- | 
[V:4] F,6E,2 | 
[V:1] E4C2F2- | 
[V:2] G4A4 | 
[V:3] c8- | 
[V:4] C,4F,4 | 
[V:1] F2c4A2 | 
[V:2] F8 | 
[V:3] c8- | 
[V:4] A,8 | 
[V:1] A8 ||  
[V:2] f8 ||  
[V:3] c8 ||  
[V:4] F,8 ||  
[V:1]  [K:C] [K:clef=treble][M:3/1]F6G2A4 | 
[V:2]  [K:C] [K:clef=treble-8][M:3/1]F12 | 
[V:3]  [K:C] [K:clef=treble-8][M:3/1]z12 | 
[V:4]  [K:C] [K:clef=bass][M:3/1]z12 | 
[V:1] F4c6B2 | 
[V:2] F6G2A4 | 
[V:3] z12 | 
[V:4] z12 | 
[V:1] A4G4c4- | 
[V:2] F4c6B2 | 
[V:3] z12 | 
[V:4] z12 | 
[V:1] c4d4e4 | 
[V:2] A4G4c4- | 
[V:3] z12 | 
[V:4] z12 | 
[V:1] c4B2A4G2- | 
[V:2] c4d4e4- | 
[V:3] z12 | 
[V:4] z12 | 
[V:1] G2d3cc2A2B2 | 
[V:2] e2f2e2c2d4 | 
[V:3] z12 | 
[V:4] z12 | 
[V:1] c12 | 
[V:2] c12 | 
[V:3] c8c4 | 
[V:4] C,8C,4 | 
[V:1] z12 | 
[V:2] z12 | 
[V:3] B8A4 | 
[V:4] E,2F,2G,4A,2F,2- | 
[V:1] z12 | 
[V:2] z12 | 
[V:3] c2d2e4f4 | 
[V:4] F,2F,2E,2C,2D,4 | 
[V:1] z12 | 
[V:2] z12 | 
[V:3] e4d8 | 
[V:4] C,4B,,4z2B,,2 | 
[V:1] z12 | 
[V:2] z12 | 
[V:3] c4G2A4B2 | 
[V:4] C,3D,E,2F,2D,4 | 
[V:1] z12 | 
[V:2] g8g4 | 
[V:3] c4z4z4 | 
[V:4] C,12 | 
[V:1] z12 | 
[V:2] c4c4B4 | 
[V:3] g8g4 | 
[V:4] z4z4G,4 | 
[V:1] z12 | 
[V:2] c3de2f2d4 | 
[V:3] c8B4 | 
[V:4] A,2A,4F,2G,4 | 
[V:1] z12 | 
[V:2] c6A2B4 | 
[V:3] c2d2e2f2d4 | 
[V:4] A,6F,2G,4 | 
[V:1] G8G4 | 
[V:2] c4G4c4 | 
[V:3] c8z4 | 
[V:4] C,12 | 
[V:1] F4F4F4 | 
[V:2] z2c4c2A2B2 | 
[V:3] a4a2a4a2 | 
[V:4] F,12 | 
[V:1] E8F4 | 
[V:2] c6B2A4 | 
[V:3] g8z2c2 | 
[V:4] C,8C4 | 
[V:1] G4A4G2F2 | 
[V:2] G4F4G4 | 
[V:3] d2e2f4d4 | 
[V:4] B,4C2A,2B,4 | 
[V:1] E8D2F2 | 
[V:2] A4G2A2B4 | 
[V:3] c4z4d4 | 
[V:4] C4C,4B,,4 | 
[V:1] E2G4C4c2 | 
[V:2] G4c3BG4- | 
[V:3] c4G4g2g2 | 
[V:4] C,8C,4 | 
[V:1] B4A2A3GF2 | 
[V:2] G4A8 | 
[V:3] g2g2c4z2d2 | 
[V:4] E,4F,8 | 
[V:1] E2F2D2G4^F2 | 
[V:2] z12 | 
[V:3] c4_B4A4 | 
[V:4] A,4G,4C4 | 
[V:1] G4z4G4 | 
[V:2] z4G8 | 
[V:3] G4z4z4 | 
[V:4] D4B,8 | 
[V:1] A4G4c4 | 
[V:2] e8c4 | 
[V:3] z12 | 
[V:4] C6B,2A,4 | 
[V:1] B4A6G2 | 
[V:2] d6c2A2B2 | 
[V:3] z12 | 
[V:4] G,4F,8 | 
[V:1] G4F2A4G2 | 
[V:2] c4d8 | 
[V:3] z12 | 
[V:4] E,4D,8 | 
[V:1] E4G2F2D4 | 
[V:2] G8z4 | 
[V:3] c8B4 | 
[V:4] C,4E,2F,2G,4 | 
[V:1] E2C2E2F2D4 | 
[V:2] G4A4B4 | 
[V:3] c8d4 | 
[V:4] C,8B,,4 | 
[V:1] C2z2G6A2 | 
[V:2] G12 | 
[V:3] e4c4z4 | 
[V:4] C,12 | 
[V:1] B4c4d4 | 
[V:2] G4A4G4 | 
[V:3] g2g2e2f2g4 | 
[V:4] z12 | 
[V:1] e2c4A2B4 | 
[V:2] g4f2e2g4 | 
[V:3] z4c4d2e2 | 
[V:4] C4A,4G,4 | 
[V:1] c3BA2G2F4 | 
[V:2] c8d4 | 
[V:3] f2e2c2G2A2B2 | 
[V:4] F,2C,2F,2E,2D,4 | 
[V:1] E2z2C2G2E2C2 | 
[V:2] G8z2g2 | 
[V:3] c2e4c2g2e2 | 
[V:4] C,12- | 
[V:1] z2G2E2G2z2c2 | 
[V:2] e2c2z2g2e2a2 | 
[V:3] c2z2g2e2g2f2 | 
[V:4] C,8E,2F,2 | 
[V:1] B3Ac4A4 | 
[V:2] g4e4f4- | 
[V:3] d4c4z2d2 | 
[V:4] G,4C,4F,4 | 
[V:1] z2A4G2F4 | 
[V:2] f2e2c4A2c2- | 
[V:3] c2A4B2c2A2 | 
[V:4] F,12 | 
[V:1] E3FG2c2B4 | 
[V:2] cBA2G4z4 | 
[V:3] G2c4e2d4 | 
[V:4] C,8G,4 | 
[V:1] A2A3GF2E3D | 
[V:2] F4A4G4 | 
[V:3] c12- | 
[V:4] A,4F,4C,4 | 
[V:1] F12 |]  
[V:2] A6F2F4 |]  
[V:3] c12 |]  
[V:4] F,12 |]  



